src/assets/images/menu-icon-1.svg

<svg width="15" height="14" viewBox="0 0 15 14" fill="none" xmlns="http://www.w3.org/2000/svg">
<path d="M4.27341 0.853005L4.00127 0.0161133H0.49707L2.04557 4.42328L4.27341 0.853005Z" fill="#FF4500"/>
<path d="M14.2058 0.0161133H10.7207L9.2793 4.42328L13.2144 2.83773L14.2058 0.0161133Z" fill="#A4C217"/>
<path d="M13.2144 2.83774L10.7207 0.0161133H14.2058L13.2144 2.83774Z" fill="#D5CA29"/>
<path d="M5.44036 4.4233L4.27336 0.853027L2.72754 3.33019L5.44036 4.4233Z" fill="#D6493E"/>
<path d="M3.93592 9.80307L7.35178 10.3182L5.44065 4.42334L3.11816 7.47577L3.93592 9.80307Z" fill="#A63B94"/>
<path d="M7.35156 10.3182L10.7669 9.80456L11.632 7.34226L9.27956 4.42334L7.35156 10.3182Z" fill="#2DB686"/>
<path d="M7.35175 10.3184L9.412 13.6615H5.2915L7.35175 10.3184Z" fill="#0197D8"/>
<path d="M7.3514 10.3184L5.29115 13.6615L3.93555 9.80322L7.3514 10.3184Z" fill="#336C9B"/>
<path d="M9.41181 13.6614L10.7669 9.80469L7.35156 10.3183L9.41181 13.6614Z" fill="#26BF79"/>
<path d="M3.11814 7.47554L5.44062 4.4231L1.48584 2.82959L3.11814 7.47554Z" fill="#CC4E84"/>
<path d="M11.6318 7.34235L9.2793 4.42343L13.2144 2.83789L11.6318 7.34235Z" fill="#1BC07D"/>
</svg>

<svg xmlns="http://www.w3.org/2000/svg" width="15" height="14" fill="none"><path fill="#FF4500" d="M4.273.853 4.001.016H.497l1.549 4.407L4.273.853Z"/><path fill="#A4C217" d="M14.206.016H10.72L9.279 4.423l3.935-1.585.992-2.822Z"/><path fill="#D5CA29" d="M13.214 2.838 10.721.016h3.485l-.992 2.822Z"/><path fill="#D6493E" d="M5.44 4.423 4.273.853 2.728 3.33 5.44 4.423Z"/><path fill="#A63B94" d="m3.936 9.803 3.416.515L5.44 4.423 3.118 7.476l.818 2.327Z"/><path fill="#2DB686" d="m7.352 10.318 3.415-.513.865-2.463L9.28 4.423l-1.928 5.895Z"/><path fill="#0197D8" d="m7.352 10.318 2.06 3.344h-4.12l2.06-3.344Z"/><path fill="#336C9B" d="m7.351 10.318-2.06 3.344-1.355-3.859 3.415.515Z"/><path fill="#26BF79" d="m9.412 13.661 1.355-3.856-3.415.513 2.06 3.343Z"/><path fill="#CC4E84" d="m3.118 7.476 2.323-3.053L1.486 2.83l1.632 4.646Z"/><path fill="#1BC07D" d="M11.632 7.342 9.279 4.423l3.935-1.585-1.582 4.504Z"/></svg>
